chrome/icons/microphone.svg

<svg height="16" viewBox="160 0 704 1024" width="16" xmlns="http://www.w3.org/2000/svg" xmlns:xlink="http://www.w3.org/1999/xlink">
  <path d="M320,188C320,162 325.167,137.583 335.5,114.75C345.833,91.9167 359.75,72.0001 377.25,55C394.75,38.0001 415.167,24.5834 438.5,14.75C461.833,4.91669 486.333,0 512,0C537.667,0 562.167,4.91669 585.5,14.75C608.833,24.5834 629.25,38.0001 646.75,55C664.25,72.0001 678.167,91.9167 688.5,114.75C698.833,137.583 704,162 704,188L704,516C704,541 698.917,564.917 688.75,587.75C678.583,610.583 664.917,630.583 647.75,647.75C630.583,664.917 610.583,678.583 587.75,688.75C564.917,698.917 541,704 516,704C489.667,704 464.667,699.25 441,689.75C417.333,680.25 396.5,667.083 378.5,650.25C360.5,633.417 346.25,613.583 335.75,590.75C325.25,567.917 320,543 320,516ZM509.5,640C526.833,640 543.417,636.833 559.25,630.5C575.083,624.167 589,615.333 601,604C613,592.667 622.5,579.333 629.5,564C636.5,548.667 640,532.167 640,514.5L640,192C640,175 636.667,158.75 630,143.25C623.333,127.75 614.333,114.167 603,102.5C591.667,90.8334 578.417,81.5001 563.25,74.5C548.083,67.5001 531.833,64.0001 514.5,64C497.167,64.0001 480.583,67.2501 464.75,73.75C448.917,80.2501 435,89.0834 423,100.25C411,111.417 401.5,124.667 394.5,140C387.5,155.333 384,171.833 384,189.5L384,512C384,529 387.333,545.25 394,560.75C400.667,576.25 409.667,589.833 421,601.5C432.333,613.167 445.583,622.5 460.75,629.5C475.917,636.5 492.167,640 509.5,640ZM544,862.5L544,992C544,1000.67 540.833,1008.17 534.5,1014.5C528.167,1020.83 520.667,1024 512,1024C503.333,1024 495.833,1020.83 489.5,1014.5C483.167,1008.17 480,1000.67 480,992L480,862.5C434.667,858.167 392.5,846.083 353.5,826.25C314.5,806.417 280.667,780.833 252,749.5C223.333,718.167 200.833,682.167 184.5,641.5C168.167,600.833 160,557.667 160,512C160,503.333 163.167,495.833 169.5,489.5C175.833,483.167 183.333,480 192,480C200.667,480 208.167,483.167 214.5,489.5C220.833,495.833 224,503.333 224,512C224,537.333 227.25,562.25 233.75,586.75C240.25,611.25 249.833,634.5 262.5,656.5C275.5,678.5 291,698.417 309,716.25C327,734.083 346.75,749.167 368.25,761.5C389.75,773.833 412.667,783.333 437,790C461.333,796.667 486.333,800 512,800C537.667,800 562.667,796.667 587,790C611.333,783.333 634.25,773.833 655.75,761.5C677.25,749.167 696.917,734.167 714.75,716.5C732.583,698.833 748,678.833 761,656.5C774,634.5 783.75,611.333 790.25,587C796.75,562.667 800,537.667 800,512C800,503.333 803.167,495.833 809.5,489.5C815.833,483.167 823.333,480 832,480C840.667,480 848.167,483.167 854.5,489.5C860.833,495.833 864,503.333 864,512C864,542.333 860.25,571.667 852.75,600C845.25,628.333 834.75,655 821.25,680C807.75,705 791.333,728 772,749C752.667,770 731.167,788.5 707.5,804.5C683.833,820.5 658.167,833.5 630.5,843.5C602.833,853.5 574,859.833 544,862.5Z" fill="context-fill" fill-opacity="context-fill-opacity">
  </path>
</svg>

<svg xmlns="http://www.w3.org/2000/svg" width="16" height="16" viewBox="160 0 704 1024"><path fill="context-fill" fill-opacity="context-fill-opacity" d="M320 188q0-39 15.5-73.25T377.25 55t61.25-40.25T512 0t73.5 14.75T646.75 55t41.75 59.75T704 188v328q0 37.5-15.25 71.75t-41 60-60 41T516 704q-39.5 0-75-14.25t-62.5-39.5-42.75-59.5T320 516Zm189.5 452q26 0 49.75-9.5T601 604t28.5-40 10.5-49.5V192q0-25.5-10-48.75t-27-40.75-39.75-28T514.5 64t-49.75 9.75-41.75 26.5T394.5 140 384 189.5V512q0 25.5 10 48.75t27 40.75 39.75 28T509.5 640M544 862.5V992q0 13.005-9.5 22.5c-6.333 6.33-13.833 9.5-22.5 9.5s-16.167-3.17-22.5-9.5q-9.5-9.495-9.5-22.5V862.5q-68-6.5-126.5-36.25T252 749.5t-67.5-108T160 512q0-13 9.5-22.5T192 480t22.5 9.5T224 512q0 38 9.75 74.75t28.75 69.75q19.5 33 46.5 59.75t59.25 45.25T437 790t75 10 75-10 68.75-28.5 59-45 46.25-60q19.5-33 29.25-69.5t9.75-75q0-13 9.5-22.5T832 480t22.5 9.5T864 512q0 45.5-11.25 88t-31.5 80T772 749a366 366 0 0 1-64.5 55.5q-35.5 24-77 39t-86.5 19"/></svg>
